!!!!SEGMENT: pl-kk--kk-i-10--010_pekiel-bartlomiej--magnum-nomen-domini.krn
!!!cenid: 16xx:1202
!!!COM: Pękiel, Bartłomiej
!!!COM-rismID: pe30105642
!!!CDT: <1633-~1670
!!!CNT: Polish
!!!OTL: Magnum nomen Domini
!!!PDT:
!!!AGN: Sacred
!!!SMS-siglum: PL-Kk
!!!SMS-shelfmark: Kk.I.10
!!!SMS-shelfwork: 010 W
!!!SMS-variant:
!!!SMS-altvar:
!!!NIFC-rismSourceID: 1001153885
!!!NIFC-islandoraID: pl-kk:2434
!!!URL-pdf-islandora: https://repozytorium.nifc.pl/islandora/object/pl-kk%3A2434/datastream/PDF/view
!!!URL-scan: https://polish.musicsources.pl/pl/lokalizacje/galeria/rekopisy/5737 @EN{Scan on Polish Music Sources Website} @PL{Skany w portalu Dziedzictwo Muzyki Polskiej w otwartym dostępie}
!!!ONB-nifc: UWAGA: A (skan 0021), T (0070), B (0119). Następny utwór: Salvator orbis
!!!AIN: 1 alto 1 bass 1 tenor
!!!key:
**kern	**text	**kern	**text	**kern	**text
*part3	*part3	*part2	*part2	*part1	*part1
*staff3	*staff3	*staff2	*staff2	*staff1	*staff1
*Ibass	*	*Itenor	*	*Ialto	*
*I"Bassus.	*	*I"Tenor	*	*I"Altus.	*
*I'B	*	*I'T	*	*I'A	*
*clefF4	*	*clefC4	*	*clefC3	*
*k[]	*	*k[]	*	*k[]	*
*C:	*	*C:	*	*C:	*
*M3/1	*	*M3/1	*	*M3/1	*
=1-	=1-	=1-	=1-	=1-	=1-
*2\right	*	*2\right	*	*2\right	*
!LO:TX:t=P:problem=all\right&colon; global	!	!LO:TX:t=P:problem=all\right&colon; global	!	!LO:TX:t=P:problem=all\right&colon; global	!
!LO:TX:t=P:problem=w źródle inicjał M na początku pięciolinii	!	!	!	!	!
!	!	!LO:TX:t=P:problem=w źródle inicjał M na początku pięciolinii	!	!LO:TX:t=P:problem=w źródle inicjał M na początku pięciolinii	!
!LO:TX:t=P:problem=kreski taktowe dopisane inną ręką [zgodne z metrum 3/1, nieuwzględnione w kodzie]	!	!	!	!	!
!	!	!	!	!LO:TX:t=P:problem=kreski taktowe dopisane inną ręką (ołówkiem)	!
0C	Ma-	0c	Ma-	0e	Ma-
1D	-gnum	1A	-gnum	1d	-gnum
=2-	=2-	=2-	=2-	=2-	=2-
0AA	No-	0A	no-	0c#X	no-
1D	-men	1A	-men	1d	-men
=3-	=3-	=3-	=3-	=3-	=3-
0C	Do-	0c	Do-	0e	Do-
1FF	-mi-	1c	-mi-	1f	-mi-
=4-	=4-	=4-	=4-	=4-	=4-
!	!	!LO:TX:t=P:problem=w źródle kreska oddechu na różnych liniach [rozdzielacz słów]	!	!	!
0C	-ni	0c,<	-ni	0e	-ni
1BB	Em-	1d	E-	1d	E-
=5-	=5-	=5-	=5-	=5-	=5-
0C	-ma-	2e\	-ma-	2c#y\	-ma-
.	.	2d\	.	2d\	.
.	.	2c\	.	1e	.
.	.	2B\	.	.	.
1D	-nu-	2.A/	.	2.d\	.
.	.	4A/	-nu-	4d\	nu-
=6-	=6-	=6-	=6-	=6-	=6-
*	*	*custos:G	*	*	*
0.GG	-el	0.B	-el.	0.d	-el,
!	!	!LO:LB:g=original	!	!	!
=7-	=7-	=7-	=7-	=7-	=7-
0C	Quod	0G	quod	0e	quod
1BB	an-	1G	a-	1d	a-
=8-	=8-	=8-	=8-	=8-	=8-
0C	-nun-	0G	-nun-	0cny	-nun-
*custos:C	*	*	*	*custos:e	*
1FF	-ti-	1A	-ci-	1c	-ci-
!LO:LB:g=original	!	!	!	!LO:LB:g=original	!
=9-	=9-	=9-	=9-	=9-	=9-
0C	-a-	0c	-a-	0e	-a-
1D	-tum	1A	-tum	1d	-tum
=10-	=10-	=10-	=10-	=10-	=10-
0A	eſt	0A	eſt	0c	eſt
1E	per	1G	per	1c	per
=11-	=11-	=11-	=11-	=11-	=11-
0G	Ga-	0G	Ga-	1c	Ga-
.	.	.	.	2B/	.
.	.	.	.	2A/	.
1GG	-bri-	1G	-bri-	2.B/	.
.	.	.	.	4B/	-bri-
=12-	=12-	=12-	=12-	=12-	=12-
0.C	-el	0.G	-el.	0.c	-el
=13-	=13-	=13-	=13-	=13-	=13-
0C	ho-	0c	Ho-	0e	Ho-
1AA	-di-	1c	-di-	1f#X	-di-
=14-	=14-	=14-	=14-	=14-	=14-
0GG	-e	0d	-e	0g	-e
!	!	!	!	!LO:N:acc=-	!
1D	ap-	1d	ap-	1fn	ap-
=15-	=15-	=15-	=15-	=15-	=15-
0C	-pa-	0e	-pa-	0g	-pa-
*	*	*custos:c	*	*	*
1D	-ru-	1d	-ru-	1f	-ru-
!	!	!LO:LB:g=original	!	!	!
=16-	=16-	=16-	=16-	=16-	=16-
*lig	*	*	*	*	*
!	!	!	!	!LO:TX:t=P:problem=w źródle kreska oddechu na różnych liniach [rozdzielacz słów]	!
1F	-it	1c	-it	0f,<	-it
1D	.	0d	ap-	.	.
*Xlig	*	*	*	*	*
1G	ap-	.	.	1g	ap-
=17-	=17-	=17-	=17-	=17-	=17-
0C	-pa-	0e	-pa-	0g	-pa-
*	*	*	*	*custos:f	*
1D	-ru-	1d	-ru-	1f	-ru-
!LO:LB:g=original	!	!	!	!LO:LB:g=original	!
=18-	=18-	=18-	=18-	=18-	=18-
0F	-it	0c	-it	0f,<	-it
1G	in	1B	in	1d	in
=19-	=19-	=19-	=19-	=19-	=19-
0C	I-	1.c	I-	2c\	I-
.	.	.	.	2d\	.
.	.	.	.	1e	.
.	.	2B\	.	.	.
1D	-sra-	2.A/	.	2.d\	.
.	.	4A/	-sra-	4d\	sra-
=20-	=20-	=20-	=20-	=20-	=20-
0.GG	-el	0.B	-el.	0.d,<	-el
=21-	=21-	=21-	=21-	=21-	=21-
0C	Per	0G	Per	0e	Per
1BB	Ma-	1G	Ma-	1d	Ma-
=22-	=22-	=22-	=22-	=22-	=22-
0C	-ri-	0G	-ri-	0c	-ri-
!	!	!LO:SIC:v:s=1A	!	!	!
1FF	-am	1B	-am	1c	-am
=23-	=23-	=23-	=23-	=23-	=23-
0C	Vir-	0c	Vir-	0e	Vir-
!	!	!	!	!LO:SIC:v:s=1f	!
1D	-gi-	1A	-gi-	1e	-gi-
=24-	=24-	=24-	=24-	=24-	=24-
0AA	-nem	0A	-nem	0c	-nem
*	*	*custos:G	*	*	*
1E	in	1G	in	1c	in
!	!	!LO:LB:g=original	!	!	!
=25-	=25-	=25-	=25-	=25-	=25-
0G	Be-	0G	Be-	1c	Be-
.	.	.	.	2B/	.
.	.	.	.	2A/	.
1GG	-thle-	1G	-thle-	2.B/	.
*	*	*	*	*custos:c	*
.	.	.	.	4B/	-thle-
!	!	!	!	!LO:LB:g=original	!
=26-	=26-	=26-	=26-	=26-	=26-
*custos:C	*	*	*	*	*
0.C	-em	0.G	-em	0.c	-em
!LO:LB:g=original	!	!	!	!	!
=27-	=27-	=27-	=27-	=27-	=27-
0C	E-	0G	E-	0c	E-
1E	-ia	1c	-ia	1c,<	-ia
=28-	=28-	=28-	=28-	=28-	=28-
0C	E-	0G	e-	0c	e-
1C	-ia	1G,<	-ia	1c,<	-ia
=29-	=29-	=29-	=29-	=29-	=29-
*	*	*	*ij	*	*
0F	E-	0A	E-	0f	E-
1A	-ia	1c	-ia	1f,<	-ia
*	*	*	*Xij	*	*
=30-	=30-	=30-	=30-	=30-	=30-
*	*	*	*ij	*	*
0F	E-	0A	e-	0f	e-
1F	-ia	1A,<	-ia	1f,<	-ia
*	*	*	*Xij	*	*
=31-	=31-	=31-	=31-	=31-	=31-
1r	.	0F	Vir-	0a	Vir-
1F	Vir-	.	.	.	.
1F	-go	1c	.	1f	-go
=32-	=32-	=32-	=32-	=32-	=32-
0C	De-	0c	-go	0e	De-
1D	-um	1A	De-	1d	-um
=33-	=33-	=33-	=33-	=33-	=33-
2AA/	ge-	1A	-um	0c	ge-
2BB/	.	.	.	.	.
1C	.	1.G	ge-	.	.
1GG	-nu-	.	.	1B	-nu-
*	*	*custos:G	*	*	*
.	.	2G/	-nu-	.	.
!	!	!LO:LB:g=original	!	!	!
=34-	=34-	=34-	=34-	=34-	=34-
*custos:C	*	*	*	*	*
0.C	-it	0.G	-it	0.c	-it
!LO:LB:g=original	!	!	!	!	!
=35-	=35-	=35-	=35-	=35-	=35-
0C	quod	0G	Quod	0e	quod
*	*	*	*	*custos:c	*
1GG	Di-	1G	Di-	1B	Di-
!	!	!	!	!LO:LB:g=original	!
=36-	=36-	=36-	=36-	=36-	=36-
0C	-ui-	0G	-ui-	0c	-ui-
1FF	-na	1A	-na	1c	-na
=37-	=37-	=37-	=37-	=37-	=37-
0C	Vo-	0c	Vo-	0e	vo-
1D	-lu-	1A	-lu-	1d	-lu-
=38-	=38-	=38-	=38-	=38-	=38-
0AA	-it	0A	-it	0c,<	-it
1E	cle-	1G	Cle-	1c	cle-
=39-	=39-	=39-	=39-	=39-	=39-
0G	-men-	0G	-men-	1c	-men-
.	.	.	.	2B/	.
.	.	.	.	2A/	.
1GG	-ti-	1G	-ti-	2.B/	.
.	.	.	.	4B/	-ti-
=40-	=40-	=40-	=40-	=40-	=40-
0.C	-a	0.G	-a	0.c	-a
=41-	=41-	=41-	=41-	=41-	=41-
1r	.	1r	.	1r	.
1r	.	1r	.	1r	.
1C	gau-	1G	Gau-	1e	gau-
=42-	=42-	=42-	=42-	=42-	=42-
1.GG	-de-	1.G	-de-	1.B	-de-
2GG/	-te	2G/	-te	2B,</	-te
*	*ij	*	*	*	*ij
*	*	*custos:G	*	*	*
1G	gau-	1G	gau-	1B	gau-
!	!	!LO:LB:g=original	!	!	!
=43-	=43-	=43-	=43-	=43-	=43-
1.C	-de-	1.G	-de-	1.c	-de-
*custos:AA	*	*	*	*	*
2C/	-te	2G/	-te	2c,</	-te
*	*Xij	*	*	*	*
!LO:LB:g=original	!	!	!	!	!
*	*ij	*	*	*	*
*	*	*	*	*custos:d	*
1AA	gau-	1A	Chri-	1c	gau-
!	!	!	!	!LO:LB:g=original	!
=44-	=44-	=44-	=44-	=44-	=44-
0GG	-de-	0B	-ſtus	0d	-de-
1GG	-te	1B	Na-	1d,<	-te
*	*Xij	*	*	*	*Xij
=45-	=45-	=45-	=45-	=45-	=45-
0G	Chry-	0B	-tus	0g	Chri-
1A	-stus	1c	eſt	1d	-ſtus
=46-	=46-	=46-	=46-	=46-	=46-
(>1G	Na-	0d	ho-	0g	na-
1GG)	.	.	.	.	.
1AA	-tus	1c	.	1e	-tus
=47-	=47-	=47-	=47-	=47-	=47-
1BB	eſt	1B	.	1d	eſt
*lig	*	*	*	*	*
1C	ho-	1.A	.	1e	.
*col	*	*	*	*	*
2.D\	.	.	.	2.d\	ho-
.	.	2A/	-di-	.	.
*Xlig	*	*	*	*	*
4D/	-di-	.	.	4d\	-di-
*Xcol	*	*	*	*	*
=48-	=48-	=48-	=48-	=48-	=48-
1GG	-e	0.B	-e	0.d	-e
1rBB	.	.	.	.	.
1rBB	.	.	.	.	.
=49-	=49-	=49-	=49-	=49-	=49-
1r	.	1r	.	1r	.
1r	.	1r	.	1r	.
1C	gau-	1G	Gau-	1e	Gau-
=50-	=50-	=50-	=50-	=50-	=50-
1.GG	-de-	1.G	-de-	1.B	-de-
2GG/	-te	2G,</	-te	2B,</	-te
*	*	*	*ij	*	*ij
*custos:C	*	*	*	*	*
1G	gau-	1G	Gau-	1B	Gau-
!LO:LB:g=original	!	!	!	!	!
=51-	=51-	=51-	=51-	=51-	=51-
1.C	-de-	1.A	-de-	1.c	-de-
*	*	*custos:A	*	*	*
2C/	-te	2G/	-te	2c,</	-te
*	*	*	*Xij	*	*Xij
!	!	!LO:LB:g=original	!	!	!
*	*ij	*	*ij	*	*ij
1AA	gau-	1A	Gau-	1c	Gau-
=52-	=52-	=52-	=52-	=52-	=52-
0GG	-de-	0B	-de-	0d	-de-
1GG	-te	1B	-te	1d	-te
*	*Xij	*	*Xij	*	*Xij
!	!	!	!	!LO:LB:g=original	!
=53-	=53-	=53-	=53-	=53-	=53-
0AA	Ex	0B	ex	0g	Ex
1AA	Ma-	1c	Ma-	1e	Ma-
=54-	=54-	=54-	=54-	=54-	=54-
0GG	-ri-	0d	-ri-	0g	-ri-
1AA	-a	1c	-a	1e	-a
=55-	=55-	=55-	=55-	=55-	=55-
*lig	*	*lig	*	*lig	*
1BB	Vir-	1B	Vir-	1d	Vir-
1C	.	1.A	.	1e	.
*Xlig	*	*Xlig	*	*Xlig	*
2.D/	.	.	.	2.d\	.
.	.	2A/	-gi-	.	.
4D/	-gi-	.	.	4d\	-gi-
=56-	=56-	=56-	=56-	=56-	=56-
0.GG	-ne	0.B	-ne	0.d	-ne
=57-	=57-	=57-	=57-	=57-	=57-
1.G	al-	1.d	al-	1.g	al-
2G\	-le-	2d\	-le-	2g\	-le-
1A	-lu-	1A	-lu-	1e	-lu-
=58-	=58-	=58-	=58-	=58-	=58-
2G\	-ia	1d	-ia	0.g	-ia
*	*ij	*	*	*	*
*custos:E	*	*	*	*	*
2F\	al-	.	.	.	.
!LO:LB:g=original	!	!	!	!	!
2E\	-le-	0e	al-	.	.
2D\	-lu-	.	.	.	.
1C	-ia	.	.	.	.
=59-	=59-	=59-	=59-	=59-	=59-
*	*	*	*	*	*ij
1BB	al-	1B	-le-	1d	al-
1C	-le-	0A	-lu-	1e	-le-
1D	-lu-	.	.	1d	-lu-
=60-	=60-	=60-	=60-	=60-	=60-
*	*	*custos:G	*	*	*
!	!	!	!	!LO:TX:a:t=P:problem=w źródle kawałek wytarty i nieczytelny	!
0.GG	-ia	0.B	-ia	0.d	-ia
*	*Xij	*	*	*	*Xij
!	!	!LO:LB:g=original	!	!LO:LB:g=original	!
=61-	=61-	=61-	=61-	=61-	=61-
*	*ij	*	*	*	*
1.C	al-	1.G	al-	1.c	al-
2C/	-le-	2G/	-le-	2c/	-le-
1D	-lu-	1D	-lu-	2A/	-lu-
.	.	.	.	2B/	-ia
=62-	=62-	=62-	=62-	=62-	=62-
*	*	*	*	*	*ij
2C/	-ia	1G	-ia	0.c	al-
2BB/	al-	.	.	.	.
*	*ij	*	*ij	*	*
2AA/	-le-	2c\	al-	.	.
2GG/	-lu-	2B\	-le-	.	.
1FF	-ia	1A	-lu-	.	.
*	*Xij	*	*	*	*
=63-	=63-	=63-	=63-	=63-	=63-
*	*ij	*	*	*	*
1EE	al-	1G	-ia	1c	-le-
*	*	*lig	*	*	*
1FF	-le-	1A	al-	1c	-lu-
1GG	-lu-	1G	.	1B	.
*	*	*Xlig	*	*	*
=64-	=64-	=64-	=64-	=64-	=64-
1C	-ia	1G	.	1c	-ia
*	*Xij	*	*	*	*
*	*ij	*	*	*	*
1.C	al-	1.E	.	1.c	al-
*custos:F	*	*	*	*	*
2C/	-le-	2E/	-le-	2c/	-le-
!LO:LB:g=original	!	!	!	!	!
=65-	=65-	=65-	=65-	=65-	=65-
0F	-lu-	0F	-lu-	0c	-lu-
1C	-ia	1E	-ia	1c	-ia
*	*Xij	*	*Xij	*	*Xij
=66-	=66-	=66-	=66-	=66-	=66-
*	*ij	*	*ij	*	*ij
0FF	al-	0F	al-	0c	al-
1EE	-le-	1G	-le-	1c	-le-
=67-	=67-	=67-	=67-	=67-	=67-
0.FF	-lu-	0.A	-lu-	0.c	-lu-
=68-	=68-	=68-	=68-	=68-	=68-
!LO:TX:a:t=P:problem=very like terminal long	!	!	!	!	!
!	!	!LO:TX:a:t=P:problem=very like terminal long	!	!LO:TX:a:t=P:problem=very like terminal long	!
0.Cl;;	-ia	0.Gl;;	-ia	0.cl	-ia
*	*Xij	*	*Xij	*	*Xij
==	==	==	==	==	==
*-	*-	*-	*-	*-	*-
!!!system-decoration: [(s1,s2,s3)]
!!!RDF**kern: > = above
!!!RDF**kern: < = below
!!!RDF**kern: | = vertical stroke
!!!RDF**kern: N = linked
!!!RDF**kern: l = terminal long
!!!RDF**kern: i = editorial accidental
!!!EED: Wojciech Jakubiak-Danek
!!!EEV: 2021-07-07
!!!ENC: Krzysztof Stępień
!!!END: 2021-06-25
